X:1
T:Morrow’s Hill, CM
T:Morrow’s Hill, CM
T:Charles Edward Pollock, 1902
T:Public Domain Courtesy of the Cyber Hymnal™
C:Charles Edward Pollock, 1902
Z:Public Domain
Z:Courtesy of the Cyber Hymnal™
%%score ( 1 2 ) ( 3 4 )
L:1/8
Q:1/4=115
M:3/4
K:Ab
V:1 treble 
V:2 treble 
V:3 bass 
V:4 bass 
V:1
 [CE]2 | ([Ec]3 [=D=B]) [Ec]2 | [CA]4 [EA]2 | (B A3) [DF]2 | [CE]4 [CE]2 | ([CE]3 [=B,=D]) [CE]2 | %6
 (c3 B) [EA]2 | [EB]4 [Ee]2 | (e3 =d) [Ae]2 | [Ec]4 [EA]2 | (B A3) [DF]2 | [Fd]4 [DF]2 | %12
 ([CE]3 [=B,=D]) [CE]2 | [Ec]4 [DB]2 | [CA]4 |] %15
V:2
 x2 | x6 | x6 | F4 x2 | x6 | x6 | E4 x2 | x6 | A4 x2 | x6 | F4 x2 | x6 | x6 | x6 | x4 |] %15
V:3
 [A,,A,]2 | [A,,A,]4 [A,,A,]2 | [A,,A,]4 [C,A,]2 | (F, A,3) [D,A,]2 | [A,,A,]4 [A,,A,]2 | %5
 [A,,A,]4 [A,,A,]2 | ([A,,A,]3 [B,,G,]) [C,A,]2 | [E,G,]4 [G,B,]2 | (C3 =B,) [A,C]2 | A,4 [C,A,]2 | %10
 (F, A,3) [D,A,]2 | [D,A,]4 [D,A,]2 | [E,A,]4 [E,A,]2 | [E,A,]4 [E,G,]2 | [A,,A,]4 |] %15
V:4
 x2 | x6 | x6 | D,4 x2 | x6 | x6 | x6 | x6 | A,4 x2 | A,4 x2 | D,4 x2 | x6 | x6 | x6 | x4 |] %15

